packages/icons/src/resource-stack.svg

<svg fill="none" viewBox="0 0 16 16" xmlns="http://www.w3.org/2000/svg"><g fill="#383946" stroke="#383946"><g stroke-width=".152851"><path d="m14.078 14.2823c-.3192.3174-.7518.4956-1.203.4956h-9.75c-.45119 0-.88382-.1782-1.20299-.4956h-.00003c-.31905-.3175-.49841-.748-.49841-1.1972v-2.9634c0-.0918.03668-.17987.10185-.24469.06515-.06481.15346-.10114.24541-.10114.19139 0 .34726.15446.34726.34583v2.9634c0 .2653.10599.52.29475.7078.18889.1878.44505.2934.71216.2934h9.75c.2671 0 .5233-.1056.7122-.2934.1887-.1878.2947-.4425.2947-.7078v-2.9634c0-.19137.1559-.34583.3473-.34583s.3472.15446.3472.34583v2.9634c0 .4492-.1793.8797-.4984 1.1972z"/><path d="m12.5783 12.6226h-9.15418c-.19139 0-.34726-.1545-.34726-.3459 0-.1913.15587-.3458.34726-.3458h9.15418c.1914 0 .3472.1545.3472.3458 0 .1914-.1558.3459-.3472.3459z"/><path d="m12.5783 10.9121h-9.15418c-.19139 0-.34726-.1545-.34726-.3458 0-.1914.15587-.3459.34726-.3459h9.15418c.1914 0 .3472.1545.3472.3459 0 .1913-.1558.3458-.3472.3458z"/><path d="m3.54263 9.45395.00014.00091h-.01188-.03922c-.18989.01285-.35596-.12887-.3708-.31907-.01484-.19021.12725-.35593.31717-.37211l9.01866-1.39516.0002-.00004c.1909-.02885.3699.10156.3992.29236v.00006c.0292.19085-.1027.36864-.2937.39752l-.0742.01121-.0011-.00643z"/><path d="m12.2487 4.99848c.0355-.06495.0428-.14156.0199-.21191-.0229-.07048-.074-.12833-.1411-.1602s-.1445-.03488-.2139-.0083zm0 0c-.0357.06494-.0966.11245-.1684.13145zm-9.19404 2.69301c.02642.16773.17083.29109.34058.29232h.00022c.03635.00016.07248-.00573.10686-.01731l.0006-.00021 8.59768-2.76268c.0916-.02446.1694-.08519.2151-.16834v-.0001c.0456-.08335.055-.18177.0256-.27221v-.00008c-.0295-.09053-.095-.16472-.181-.20554-.0853-.04052-.1835-.04463-.2719-.01143l-8.59857 2.76339-.00038.00012c-.16145.05281-.26123.21432-.23479.38207zm0 0v.00001l.0755-.0119z"/></g><path d="m9.5 2.64995c-.02761 0-.05.02239-.05.05v.61191c0 .02762.02239.05.05.05h2.1417c.0276 0 .05-.02238.05-.05v-.61191c0-.02761-.0224-.05-.05-.05z" stroke-linejoin="round" stroke-width=".1"/><path d="m5.07079 3.85349c0 .02762.02239.05.05.05h.61191c.02762 0 .05-.02238.05-.05v-.57079h.57146c.02762 0 .05-.02238.05-.05v-.61191c0-.02761-.02238-.05-.05-.05h-.57146v-.57079c0-.02761-.02238-.05-.05-.05h-.61191c-.02761 0-.05.02239-.05.05v.57079h-.57079c-.02761 0-.05.02239-.05.05v.61191c0 .02762.02239.05.05.05h.57079z" stroke-linejoin="round" stroke-width=".1"/></g></svg>

<svg viewBox="0 0 16 16" fill="none" xmlns="http://www.w3.org/2000/svg">
<path d="M14.078 14.2823L14.078 14.2823C13.7588 14.5997 13.3262 14.7779 12.875 14.7779H3.125C2.67381 14.7779 2.24118 14.5997 1.92201 14.2823L1.92198 14.2823C1.60293 13.9648 1.42357 13.5343 1.42357 13.0851V10.1217C1.42357 10.0299 1.46025 9.94183 1.52542 9.87701C1.59057 9.8122 1.67888 9.77587 1.77083 9.77587C1.96222 9.77587 2.11809 9.93033 2.11809 10.1217V13.0851C2.11809 13.3504 2.22408 13.6051 2.41284 13.7929C2.60173 13.9807 2.85789 14.0863 3.125 14.0863H12.875C13.1421 14.0863 13.3983 13.9807 13.5872 13.7929C13.7759 13.6051 13.8819 13.3504 13.8819 13.0851V10.1217C13.8819 9.93033 14.0378 9.77587 14.2292 9.77587C14.4206 9.77587 14.5764 9.93033 14.5764 10.1217V13.0851C14.5764 13.5343 14.3971 13.9648 14.078 14.2823Z" fill="#383946" stroke="#383946" stroke-width="0.152851"/>
<path d="M12.5783 12.6226H3.42412C3.23273 12.6226 3.07686 12.4681 3.07686 12.2767C3.07686 12.0854 3.23273 11.9309 3.42412 11.9309H12.5783C12.7697 11.9309 12.9255 12.0854 12.9255 12.2767C12.9255 12.4681 12.7697 12.6226 12.5783 12.6226Z" fill="#383946" stroke="#383946" stroke-width="0.152851"/>
<path d="M12.5783 10.9121H3.42412C3.23273 10.9121 3.07686 10.7576 3.07686 10.5663C3.07686 10.3749 3.23273 10.2204 3.42412 10.2204H12.5783C12.7697 10.2204 12.9255 10.3749 12.9255 10.5663C12.9255 10.7576 12.7697 10.9121 12.5783 10.9121Z" fill="#383946" stroke="#383946" stroke-width="0.152851"/>
<path d="M3.54263 9.45395L3.54277 9.45486H3.53089H3.49167C3.30178 9.46771 3.13571 9.32599 3.12087 9.13579C3.10603 8.94558 3.24812 8.77986 3.43804 8.76368L12.4567 7.36852L12.4567 7.36852L12.4569 7.36848C12.6478 7.33963 12.8268 7.47004 12.8561 7.66084L12.8561 7.6609C12.8853 7.85175 12.7534 8.02954 12.5624 8.05842L12.4882 8.06963L12.4871 8.0632L3.54263 9.45395Z" fill="#383946" stroke="#383946" stroke-width="0.152851"/>
<path d="M12.2487 4.99848C12.2842 4.93353 12.2915 4.85692 12.2686 4.78657C12.2457 4.71609 12.1946 4.65824 12.1275 4.62637C12.0604 4.5945 11.983 4.59149 11.9136 4.61807L12.2487 4.99848ZM12.2487 4.99848C12.213 5.06342 12.1521 5.11093 12.0803 5.12993L12.2487 4.99848ZM3.05466 7.69149C3.08108 7.85922 3.22549 7.98258 3.39524 7.98381L3.39546 7.98381C3.43181 7.98397 3.46794 7.97808 3.50232 7.9665C3.50252 7.96643 3.50272 7.96636 3.50292 7.96629L12.1006 5.20361C12.1922 5.17915 12.27 5.11842 12.3157 5.03527L12.3157 5.03517C12.3613 4.95182 12.3707 4.8534 12.3413 4.76296L12.3413 4.76288C12.3118 4.67235 12.2463 4.59816 12.1603 4.55734L12.1603 4.55734C12.075 4.51682 11.9768 4.51271 11.8884 4.54591L3.28983 7.3093L3.28945 7.30942C3.128 7.36223 3.02822 7.52374 3.05466 7.69149ZM3.05466 7.69149C3.05466 7.69149 3.05466 7.6915 3.05466 7.6915L3.13016 7.6796L3.05466 7.69149Z" fill="#383946" stroke="#383946" stroke-width="0.152851"/>
<path d="M9.5 2.64995C9.47239 2.64995 9.45 2.67234 9.45 2.69995V3.31186C9.45 3.33948 9.47239 3.36186 9.5 3.36186H11.6417C11.6693 3.36186 11.6917 3.33948 11.6917 3.31186V2.69995C11.6917 2.67234 11.6693 2.64995 11.6417 2.64995H9.5Z" fill="#383946" stroke="#383946" stroke-width="0.1" stroke-linejoin="round"/>
<path d="M5.07079 3.85349C5.07079 3.88111 5.09318 3.90349 5.12079 3.90349H5.7327C5.76032 3.90349 5.7827 3.88111 5.7827 3.85349V3.2827H6.35416C6.38178 3.2827 6.40416 3.26032 6.40416 3.2327V2.62079C6.40416 2.59318 6.38178 2.57079 6.35416 2.57079H5.7827V2C5.7827 1.97239 5.76032 1.95 5.7327 1.95H5.12079C5.09318 1.95 5.07079 1.97239 5.07079 2V2.57079H4.5C4.47239 2.57079 4.45 2.59318 4.45 2.62079V3.2327C4.45 3.26032 4.47239 3.2827 4.5 3.2827H5.07079V3.85349Z" fill="#383946" stroke="#383946" stroke-width="0.1" stroke-linejoin="round"/>
</svg>
